X: 5939
T: Cameronian, The
R: reel
M: 4/4
K: Dmajor
|:A2FA DAFA|GE (3EDE GEdB|A2FA DAFA|1 GBAG FDdB:|2 GBAG FD (3EFG:|
|:Addc d3A|(3Bcd ef gfed|(3cBA eA fAef|defd gfed|
fgaf bage|dfec defg|(3agf ge fdec|dABG FAdB:|

